src/assets/outline/MoneyRecive.svg

<svg width="24" height="24" viewBox="0 0 24 24"  xmlns="http://www.w3.org/2000/svg">
<path d="M13.05 16.25H11.17C9.84001 16.25 8.75 15.13 8.75 13.75C8.75 13.34 9.09 13 9.5 13C9.91 13 10.25 13.34 10.25 13.75C10.25 14.3 10.66 14.75 11.17 14.75H13.05C13.44 14.75 13.75 14.4 13.75 13.97C13.75 13.43 13.6 13.35 13.26 13.23L10.25 12.18C9.61 11.96 8.75 11.49 8.75 10.02C8.75 8.76999 9.74001 7.73999 10.95 7.73999H12.83C14.16 7.73999 15.25 8.85999 15.25 10.24C15.25 10.65 14.91 10.99 14.5 10.99C14.09 10.99 13.75 10.65 13.75 10.24C13.75 9.68999 13.34 9.23999 12.83 9.23999H10.95C10.56 9.23999 10.25 9.58999 10.25 10.02C10.25 10.56 10.4 10.64 10.74 10.76L13.75 11.81C14.39 12.03 15.25 12.5 15.25 13.97C15.25 15.23 14.26 16.25 13.05 16.25Z" />
<path d="M12 17.25C11.59 17.25 11.25 16.91 11.25 16.5V7.5C11.25 7.09 11.59 6.75 12 6.75C12.41 6.75 12.75 7.09 12.75 7.5V16.5C12.75 16.91 12.41 17.25 12 17.25Z" />
<path d="M12 22.75C6.07 22.75 1.25 17.93 1.25 12C1.25 6.07 6.07 1.25 12 1.25C12.41 1.25 12.75 1.59 12.75 2C12.75 2.41 12.41 2.75 12 2.75C6.9 2.75 2.75 6.9 2.75 12C2.75 17.1 6.9 21.25 12 21.25C17.1 21.25 21.25 17.1 21.25 12C21.25 11.59 21.59 11.25 22 11.25C22.41 11.25 22.75 11.59 22.75 12C22.75 17.93 17.93 22.75 12 22.75Z" />
<path d="M21 7.75H17C16.59 7.75 16.25 7.41 16.25 7V3C16.25 2.59 16.59 2.25 17 2.25C17.41 2.25 17.75 2.59 17.75 3V6.25H21C21.41 6.25 21.75 6.59 21.75 7C21.75 7.41 21.41 7.75 21 7.75Z" />
<path d="M16.9999 7.75C16.8099 7.75 16.6199 7.68 16.4699 7.53C16.1799 7.24 16.1799 6.76 16.4699 6.47L21.4699 1.47C21.7599 1.18 22.2399 1.18 22.5299 1.47C22.8199 1.76 22.8199 2.24 22.5299 2.53L17.5299 7.53C17.3799 7.68 17.1899 7.75 16.9999 7.75Z" />
</svg>

<?xml version="1.0" encoding="UTF-8"?>
<svg width="24" height="24" viewBox="0 0 24 24" xmlns="http://www.w3.org/2000/svg">
 <path d="m13.05 16.25h-1.88c-1.33 0-2.42-1.12-2.42-2.5 0-0.41 0.34-0.75 0.75-0.75s0.75 0.34 0.75 0.75c0 0.55 0.41 1 0.92 1h1.88c0.39 0 0.7-0.35 0.7-0.78 0-0.54-0.15-0.62-0.49-0.74l-3.01-1.05c-0.64-0.22-1.5-0.69-1.5-2.16 0-1.25 0.99001-2.28 2.2-2.28h1.88c1.33 0 2.42 1.12 2.42 2.5 0 0.41-0.34 0.75-0.75 0.75s-0.75-0.34-0.75-0.75c0-0.55001-0.41-1-0.92-1h-1.88c-0.39 0-0.7 0.35-0.7 0.78001 0 0.54 0.15 0.62 0.49 0.74l3.01 1.05c0.64 0.22 1.5 0.69 1.5 2.16 0 1.26-0.99 2.28-2.2 2.28z"/>
 <path d="m12 17.25c-0.41 0-0.75-0.34-0.75-0.75v-9c0-0.41 0.34-0.75 0.75-0.75s0.75 0.34 0.75 0.75v9c0 0.41-0.34 0.75-0.75 0.75z"/>
 <path d="m12 22.75c-5.93 0-10.75-4.82-10.75-10.75s4.82-10.75 10.75-10.75c0.41 0 0.75 0.34 0.75 0.75s-0.34 0.75-0.75 0.75c-5.1 0-9.25 4.15-9.25 9.25s4.15 9.25 9.25 9.25 9.25-4.15 9.25-9.25c0-0.41 0.34-0.75 0.75-0.75s0.75 0.34 0.75 0.75c0 5.93-4.82 10.75-10.75 10.75z"/>
 <path d="m21 7.75h-4c-0.41 0-0.75-0.34-0.75-0.75v-4c0-0.41 0.34-0.75 0.75-0.75s0.75 0.34 0.75 0.75v3.25h3.25c0.41 0 0.75 0.34 0.75 0.75s-0.34 0.75-0.75 0.75z"/>
 <path d="m17 7.75c-0.19 0-0.38-0.07-0.53-0.22-0.29-0.29-0.29-0.77 0-1.06l5-5c0.29-0.29 0.77-0.29 1.06 0s0.29 0.77 0 1.06l-5 5c-0.15 0.15-0.34 0.22-0.53 0.22z"/>
</svg>
